resources/haticons/SVG/account_balance.svg

<!-- Generated by IcoMoon.io -->
<svg version="1.1" xmlns="http://www.w3.org/2000/svg" width="24" height="24" viewBox="0 0 24 24">
<title>account_balance</title>
<path d="M11.484 0.984l9.516 5.016v2.016h-18.984v-2.016zM15.984 9.984h3v7.031h-3v-7.031zM2.016 21.984v-3h18.984v3h-18.984zM9.984 9.984h3v7.031h-3v-7.031zM3.984 9.984h3v7.031h-3v-7.031z"></path>
</svg>

<svg xmlns="http://www.w3.org/2000/svg" width="24" height="24"><path d="M11.484.984L21 6v2.016H2.016V6zm4.5 9h3v7.031h-3V9.984zm-13.968 12v-3H21v3H2.016zm7.968-12h3v7.031h-3V9.984zm-6 0h3v7.031h-3V9.984z"/></svg>
